svgs/thin/window-frame.svg

<svg xmlns="http://www.w3.org/2000/svg" viewBox="0 0 512 512"><!-- Font Awesome Pro 6.0.0-alpha2 by @fontawesome - https://fontawesome.com License - https://fontawesome.com/license (Commercial License) --><path d="M504 496H480V40C480 17.938 462.062 0 440 0H72C49.938 0 32 17.938 32 40V496H8C3.594 496 0 499.594 0 504S3.594 512 8 512H504C508.406 512 512 508.406 512 504S508.406 496 504 496ZM440 16C453.219 16 464 26.781 464 40V248H264V16H440ZM48 40C48 26.781 58.781 16 72 16H248V248H48V40ZM48 496V264H248V496H48ZM264 496V264H464V496H264Z"/></svg>

<svg xmlns="http://www.w3.org/2000/svg" viewBox="0 0 512 512"><!--! Font Awesome Pro 6.0.0-alpha3 by @fontawesome - https://fontawesome.com License - https://fontawesome.com/license (Commercial License) --><path d="M504 496H480V40C480 17.94 462.1 0 440 0H72C49.94 0 32 17.94 32 40V496H8C3.594 496 0 499.6 0 504S3.594 512 8 512h496c4.406 0 8-3.594 8-8S508.4 496 504 496zM440 16c13.22 0 24 10.78 24 24v208h-200V16H440zM48 40c0-13.22 10.78-24 24-24h176v232H48V40zM48 496V264h200v232H48zM264 496V264h200v232H264z"/></svg>
